packages/icons/src/assets/arrows-diagonal-out.svg

<svg xmlns="http://www.w3.org/2000/svg" width="16" height="16" viewBox="0 0 16 16"><path d="M6.50879 10.374L6.06738 10.8164L3.13477 13.749H6.25V14.999H1.625C1.2799 14.999 1.00013 14.7191 1 14.374V9.74902H2.25V12.8643L5.18262 9.93164L5.625 9.49023L6.50879 10.374ZM14.374 1C14.7191 1.00013 14.999 1.2799 14.999 1.625V6.25H13.749V3.13477L10.8164 6.06738L10.374 6.50879L9.49023 5.625L9.93164 5.18262L12.8643 2.25H9.74902V1H14.374Z"/></svg>

<svg xmlns="http://www.w3.org/2000/svg" width="16" height="16" viewBox="0 0 16 16"><path d="m6.509 10.374-.442.442-2.932 2.933H6.25v1.25H1.625A.625.625 0 0 1 1 14.374V9.749h1.25v3.115l2.933-2.932.442-.442zM14.374 1c.345 0 .625.28.625.625V6.25h-1.25V3.135l-2.933 2.932-.442.442-.884-.884.442-.442 2.932-2.933H9.75V1z"/></svg>
